X: 154
P: Longways for as many as will
M: 9/4
L: 1/4
K: G
V: 1
|: d |\
gdg gdg gdf | gdg gdg a2g/f/ | g>fe dcB AFD | G2G (B/c/)dB G2 |]
V: 2 clef=bass middle=d
z |\
b2a g2G d3 | g3 G3 g3 | b2c' bag d3 | g3 G3 g2 :|
|: z |\
b3 g3 d3 | b3 g3 f2d | | b2c' bag f3 | g3 G3 g2 |]

